**kern	**kern	**dynam
*part1	*part1	*part1
*staff2	*staff1	*
*I"Piano	*	*
*clefF4	*clefG2	*
*k[f#c#g#]	*k[f#c#g#]	*
=1	=1	=1
2AA 2C# 2A	(2a	.
4FF# 4C# 4F#	4f#	.
=	=	=
2EE#X 2C# 2E#X	2e#X	.
4CC# 4C#	4c#)	.
=	=	=
2CC# 2C#	2c#	.
4CC# 4C#	4c#	.
=	=	=
2FF# 2C# 2F#	2f#	.
4GG# 4C# 4G#	4g#	.
=	=	=
2AA 2C# 2A	2a	.
4FF# 4C# 4F#	4f#	.
=	=	=
2CC# 2C#	2.c#	.
4CC# 4C#	.	.
=	=	=
2CC# 2C#	2G# 2c# 2e#X	.
4CC# 4C#	4G# 4c# 4e#	.
=	=	=
!	!LO:TX:b:i:t=cresc.	!
2BBB 2BB	2G# 2d 2e#X	.
4BBB 4BB	4G# 4d 4e#	.
=	=	=
2BBB 2BB	2G# 2d 2e#X	.
4BBB 4BB	4G# 4d 4e#	.
=	=	=
2AAA 2AA	2.A 2.c# 2.f#	.
4AAA 4AA	.	.
=	=	=
2AAA#X 2AA#X	2A#X 2c# 2e 2gn	f
4AAA# 4AA#	4A# 4c# 4e 4g	.
=	=	=
*-	*-	*-
!!!system-decoration: {(s1,s2)}
